x = 64, y = 64, rule = LifeHistory
64B$64B$64B$41B20.3B$41B20.3B$41B20.3B$41B8.A3.A7.3B$41B4.2E3.3A8.3B$
41B5.E14.3B$41B3.E.E.E5.E6.3B$41B3.2E.E.C3.C.E5.3B$41B6.E.E3.E.E5.3B$
41B3.2EC.E.2C.2E6.3B$41B2.E2.C.C.C.E8.3B$41B2.2EC2.C.C.E8.3B$41B2E5.C
.C.E.2E5.3B$41B2.3E2C2.C.E.2E5.3B$41B.E7.E.E8.3B$41B.2C2.4E2.E8.3B$
41B4.C4.14B$64B$64B$64B$64B$64B$64B$64B$64B$64B$64B$64B$64B$64B$64B$
64B$64B$64B$64B$64B$64B$64B$64B$64B$64B$64B$64B$64B$64B$64B$64B$64B$
64B$64B$64B$64B$64B$64B$64B$64B$64B$64B$64B$64B$64B!
